components/2.0/icon/icons/icon-computer-desktop-22px.svg

<svg width="22" height="22" xmlns="http://www.w3.org/2000/svg"><path d="M21 16V2H1v14h8v2H5v2h12v-2h-3v-2h7zM3 4h16v8H3V4z" fill="#3D4752" fill-rule="evenodd"/></svg>

<?xml version="1.0" encoding="UTF-8" standalone="no"?>
<svg width="22px" height="22px" viewBox="0 0 22 22" version="1.1" xmlns="http://www.w3.org/2000/svg" xmlns:xlink="http://www.w3.org/1999/xlink" xmlns:sketch="http://www.bohemiancoding.com/sketch/ns">
    <!-- Generator: Sketch 3.4.4 (17249) - http://www.bohemiancoding.com/sketch -->
    <title>icon-computer-desktop-22px</title>
    <desc>Created with Sketch.</desc>
    <defs></defs>
    <g id="22px" stroke="none" stroke-width="1" fill="none" fill-rule="evenodd" sketch:type="MSPage">
        <g id="icon-computer-desktop-22px" sketch:type="MSArtboardGroup" fill="#3D4752">
            <path d="M21,16 L21,2 L1,2 L1,16 L9,16 L9,18 L5,18 L5,20 L17,20 L17,18 L14,18 L14,16 L21,16 L21,16 Z M3,4 L19,4 L19,12 L3,12 L3,4 L3,4 Z" id="Shape" sketch:type="MSShapeGroup"></path>
        </g>
    </g>
</svg>
